X:1
T:James Gibb editions
T:Fürchte dich nicht - Schütz
T:#
%%score [ 1 2 ] 3
L:1/8
Q:1/4=180
M:none
K:C
V:1 bass nm="Bass I"
V:2 bass nm="Bass II"
V:3 bass nm="Continuo"
V:1
"^Isaiah 41:10""^Fürchte dich nicht, SWV 296""^Heinrich Schütz\n(1585-1672)" z16 | z8 || %2
w: ||
[M:3/2] z12 | z12 || A,8- | A,4 F,2 ^C,2 E,8 ||[M:3/2] A,,4 D,4 E,4 | A,,8 z4 | %8
w: ||Fürch\-|* te dich nicht,|ich bin mit|dir,|
[M:3/2] F,4 G,4 A,4 | D,8 z4 || z2 ^G,4 G,2 A,8 | z16 | z2 ^F,4 F,2 G,8 | z8 z2 E,4 E,2 | F,8 z8 | %15
w: ich bin mit|dir,|wei- che nicht,||wei- che nicht,|wei- che|nicht,|
 F,2 F,2 G,8 ^F,4 | G,8 z2 E,2 F,4- | F,4 E,4 F,2 C,2 D,4- | D,2 D,2 ^C,4 D,8 | %19
w: denn ich bin dein|Gott, ich stär\-|* ke dich, ich hel\-|* fe dir auch,|
 z2 B,,2 C,8 B,,2 B,,2 | C,6 D,2 E,4 E,,2 E,,2 | A,,8 F,2 F,2 _B,3 A, | G,2 C4 A,2 D3 C _B,2 G,2 | %23
w: ich hel- fe dir|auch, ich hel- fe dir|auch, ich er- hal- te|dich durch die rech- te Hand mei-|
 A,2 _B,2 A,6 A,2 D,4 | z16 | z8 z4 E,2 E,2 | A,3 G, F,2 F,4 D,2 G,3 F, | %27
w: ner Ge- rech- tig- keit,||ich er-|hal- te dich durch die rech- te|
 E,4 E,2 E,2 C3 B, A,2 A,2- | A,2 F,2 _B,4 A,4 G,2 C,2 | D,2 B,,2 (^C,2 D,4 C,B,,) C,4 | %30
w: Hand, ich er- hal- te dich durch|* die rech- te Hand mei-|ner Ge- rech\- * * * tig-|
 D,8 z2 F,2 _B,3 A, | G,2 C4 A,2 D3 C (_B,A,B,G, | A,2) _B,2 A,8 D,4 | z16 | z8 z4 z2 E,2 | %35
w: keit. Al- le- lu|ja, Al- le- lu- ja, Al\- * * *|* le- lu- ja,||Al-|
 A,3 G, F,2 F,4 D,2 G,4 | E,4 z2 E,2 C3 B, A,2 (A,2- | A,G,A,F, _B,2) B,2 A,4 G,2 C,2 | %38
w: le- lu- ja, Al- le- lu-|ja, Al- le- lu- ja, Al\-|* * * * * le- lu- ja, Al-|
 (D,C,D,B,, ^C,2 D,4 C,B,,) C,4 | D,8 z4 z2 A,2 | %40
w: le\- * * * * * * * lu-|ja, Al-|
 (G,2 F,2 F,2 E,D,[Q:1/4=178] E,2[Q:1/4=176] D,2[Q:1/4=174] D,2[Q:1/4=172] E,[Q:1/4=171]F, | %41
w: le\- * * * * * * * * *|
[Q:1/4=169] G,2[Q:1/4=167] F,2[Q:1/4=164] F,2[Q:1/4=163] E,[Q:1/4=162]D,[Q:1/4=158] E,6)[Q:1/4=154] E,2 | %42
w: * * * * * * lu|
[Q:1/4=153] D,16 |] %43
w: ja.|
V:2
 D,12 _B,,2 ^F,,2 | A,,8 ||[M:3/2] D,4 G,4 A,4 | D,12 || z8 | z16 ||[M:3/2] z12 | z12 | %8
w: Fürch- te dich|nicht|ich bin mit|dir,|||||
[M:3/2] D,4 _B,,4 A,,4 | D,8 z4 || z16 | ^C,2 C,2 D,8 C,4 | D,8 z2 B,,2 C,4- | C,4 B,,4 C,8 | %14
w: ich bin mit|dir,||denn ich bin dein|Gott, ich stär\-|* ke dich,|
 z2 A,,2 _B,,8 A,,2 A,,2 | _B,,8 z2 A,4 A,2 | _B,8 z8 | z2 G,4 G,2 A,8 | z2 E,4 E,2 F,8 | z16 | %20
w: ich hel- fe dir|auch, wei- che|nicht,|wei- che nicht,|wei- che nicht,||
 z2 G,2 A,6 A,2 ^G,4 | A,8 z8 | z16 | z8 A,,2 A,,2 D,3 C, | B,,2 E,4 C,2 F,3 E, D,2 G,2 | %25
w: ich hel- fe dir|auch,||ich er- hal- te|dich durch die rech- te Hand mei-|
 F,2 D,2 E,6 E,2 A,,4 | A,,2 A,,2 D,3 C, _B,,2 B,,4 G,,2 | C,3 B,, A,,4 A,,2 A,,2 F,3 E, | %28
w: ner Ge- rech- tig- keit,|ich er- hal- te dich durch die|rech- te Hand, ich er- hal- te|
 D,2 D,4 _B,,2 F,3 F, E,4 | z2 G,2 F,2 D,2 E,6 E,2 | D,8 z8 | z16 | z8 z2 A,,2 D,3 C, | %33
w: dich durch die rech- te Hand|mei- ner Ge- rech- tig-|keit.||Al- le- lu-|
 _B,,2 E,4 C,2 F,4 D,2 G,2 | (F,E,F,D,) E,8 A,,4 | z2 A,,2 D,3 C, _B,,2 B,,4 G,,2 | %36
w: ja, Al- le- lu- ja, Al-|le\- * * * lu- ja,|Al- le- lu- ja, Al- le-|
 C,4 A,,4 z2 A,,2 F,3 E, | D,2 (D,3 C,D,_B,, F,2) F,2 E,2 E,2 | z2 G,2 (F,E,F,D, E,6) E,2 | %39
w: lu- ja, Al- le- lu-|ja, Al\- * * * * le- lu- ja,|Al- le\- * * * * lu-|
 D,4 z2 (A,2 G,2 F,2 F,2 E,D, | E,2 D,2 D,2 E,F, G,2 F,2 F,2 E,D, | E,2 D,2 D,8) ^C,4 | D,16 |] %43
w: ja, Al- le\- * * * *||* * * lu-|ja.|
V:3
 D,12 _B,,2 ^F,,2 | A,,8 ||[M:3/2] D,4 G,4 A,4 | D,12 || A,8- | A,4 F,2 ^C,2 E,8 || %6
w: ||||||
[M:3/2] A,,4 D,4 E,4 | A,,12 |[M:3/2] D,4 _B,,4 A,,4 | D,12 || E,8 A,,8 | ^C,2 C,2 D,8 C,4 | %12
w: ||* 6 *||||
 D,8 B,,4 C,4- | C,4 B,,4 C,8 | A,,4 _B,,8 A,,4 | _B,,4- B,,2 C,2 x4- x4 | G,,8 C,4 _B,,4 | %17
w: ||6 * *|* 6 * 4||
 x4- x4 F,,4- F,,2 G,,2 | x4- x4 D,8 | G,,4 F,,4 x4- x4 | C,4- C,2 D,2 x4- x4 | %21
w: 4 * 6 *|4 *|* * 4|* 6 * 4|
 A,,8 F,2 F,2 _B,3 A, | G,2 C4 A,2 D3 C _B,2 G,2 | A,2 _B,2 x2- x2 x2- x2 D,3 C, | %24
w: ||* * * 4 * *|
 B,,2 E,4 C,2 F,3 E, D,2 G,2 | F,2 D,2 x4- x2 x2 A,,4 | A,,2 A,,2 D,3 C, _B,,2 B,,4 G,,2 | %27
w: |||
 C,3 B,, A,,4 A,,2 A,,2 F,3 E, | D,2 x2- x2 _B,,2 F,4 C,4 | _B,,2 G,,2 (x2- x2 x4) x4 | %30
w: |* 5 * * *|* * 6|
 D,8 F,4 _B,3 A, | G,2 C4 A,2 D3 C _B,A,B,G, | A,2 _B,2 x2- x2 x2- x2 D,3 C, | %33
w: ||* * * 4 * *|
 _B,,2 E,4 C,2 F,4 D,2 G,2 | F,E,F,D, x2- x4 x2 A,,4 | A,,4 D,3 C, _B,,2 x2- x2 G,,2 | %36
w: ||* * * * 5 *|
 C,4 A,,6 A,,2 F,3 E, | D,2 x2- x2 _B,,2 F,4 C,4 | _B,,A,,B,,G,, (x2- x2 x4) x4 | %39
w: |* 5 * * *|* * * * 6|
 D,4 D,,4 E,,4 F,,4 | x2- x2 D,4 x2- x2 D,,4 | x2- x2 _B,,4 x4- x4 | D,16 |] %43
w: |6 * 6 *|6 * 4||

